packages/kronos-fna-icons/src/list.svg

<?xml version="1.0" encoding="UTF-8"?>
<svg width="20px" height="20px" viewBox="0 0 20 20" version="1.1" xmlns="http://www.w3.org/2000/svg" xmlns:xlink="http://www.w3.org/1999/xlink">
    <!-- Generator: Sketch 50.2 (55047) - http://www.bohemiancoding.com/sketch -->
    <title>list</title>
    <desc>Created with Sketch.</desc>
    <defs></defs>
    <g id="list" stroke="none" stroke-width="1" fill="none" fill-rule="evenodd">
        <path d="M0,0 L0,5 L20,5 L20,0 L0,0 L0,0 Z M0,12.5 L20,12.5 L20,7.5 L0,7.5 L0,12.5 L0,12.5 Z M0,20 L20,20 L20,15 L0,15 L0,20 L0,20 Z" id="Shape" fill="#000000"></path>
    </g>
</svg>

<svg version="1.1" xmlns="http://www.w3.org/2000/svg" width="20" height="20" viewBox="0 0 20 20">
<title>list</title>
<path d="M0 0v5h20v-5h-20zM0 12.5h20v-5h-20v5zM0 20h20v-5h-20v5z"></path>
</svg>
